src/assets/icons/circus.svg

<svg xmlns="http://www.w3.org/2000/svg" height="48" width="48"><path d="M2.6 45.15q1.2-3.5 2-7.475.8-3.975 1-8.875-2.15-.85-3.45-2.95-1.3-2.1-1.3-4.65v-3.8q6.1-2.1 12.375-6.275Q19.5 6.95 24 2.4q4.5 4.55 10.8 8.725Q41.1 15.3 47.15 17.4v3.8q0 2.55-1.275 4.65-1.275 2.1-3.425 2.95.15 4.65.95 8.7.8 4.05 2.05 7.65ZM9.3 18.2h29.4q-3.65-1.85-7.35-4.4Q27.65 11.25 24 8q-3.45 3.1-7.2 5.7t-7.5 4.5Zm19.85 7.25q1.6 0 2.6-1.275t1-2.975H25.5q0 1.7 1.025 2.975 1.025 1.275 2.625 1.275Zm-10.25 0q1.6 0 2.6-1.275t1-2.975h-7.25q0 1.7 1.025 2.975Q17.3 25.45 18.9 25.45Zm-10.25 0q1.6 0 2.6-1.275t1-2.975H5q0 1.7 1.025 2.975Q7.05 25.45 8.65 25.45ZM8.2 41h6.65q.45-2.55.75-5.55t.55-7.45q-.55-.25-1.275-.875Q14.15 26.5 13.9 26q-.85.95-1.875 1.55-1.025.6-2.275.85-.15 3.6-.55 6.675-.4 3.075-1 5.925Zm9.8 0h12.05q-.4-2.65-.625-5.65-.225-3-.425-7.05-1.65-.05-3.05-.8t-2.1-2q-.7 1.25-1.95 2t-2.8.8q-.2 3.2-.425 6.35Q18.45 37.8 18 41Zm15.15 0h6.75q-.7-3.05-1.1-6.175-.4-3.125-.5-6.425-1.2-.25-2.125-.8T34.45 26q-.5.65-1.2 1.2-.7.55-1.3.8.15 2.85.425 6.025.275 3.175.775 6.975Zm6.25-15.55q1.6 0 2.6-1.275t1-2.975h-7.25q0 1.7 1.025 2.975Q37.8 25.45 39.4 25.45Z"/></svg>

<?xml version="1.0" encoding="UTF-8" standalone="no"?>
<svg
   height="48"
   width="48"
   version="1.1"
   id="svg90"
   sodipodi:docname="circus.svg"
   inkscape:version="1.2.1 (9c6d41e410, 2022-07-14)"
   xmlns:inkscape="http://www.inkscape.org/namespaces/inkscape"
   xmlns:sodipodi="http://sodipodi.sourceforge.net/DTD/sodipodi-0.dtd"
   xmlns="http://www.w3.org/2000/svg"
   xmlns:svg="http://www.w3.org/2000/svg">
  <defs
     id="defs94" />
  <sodipodi:namedview
     id="namedview92"
     pagecolor="#505050"
     bordercolor="#eeeeee"
     borderopacity="1"
     inkscape:showpageshadow="0"
     inkscape:pageopacity="0"
     inkscape:pagecheckerboard="0"
     inkscape:deskcolor="#505050"
     showgrid="false"
     inkscape:zoom="4.9166667"
     inkscape:cx="24"
     inkscape:cy="24.101695"
     inkscape:window-width="1500"
     inkscape:window-height="930"
     inkscape:window-x="-6"
     inkscape:window-y="-6"
     inkscape:window-maximized="1"
     inkscape:current-layer="svg90" />
  <path
     id="path88"
     d="m 2.6,45.15 q 1.2,-3.5 2,-7.475 Q 5.4,33.7 5.6,28.8 3.45,27.95 2.15,25.85 0.85,23.75 0.85,21.2 V 17.4 Q 6.95,15.3 13.225,11.125 19.5,6.95 24,2.4 28.5,6.95 34.8,11.125 41.1,15.3 47.15,17.4 v 3.8 q 0,2.55 -1.275,4.65 -1.275,2.1 -3.425,2.95 0.15,4.65 0.95,8.7 0.8,4.05 2.05,7.65 z M 9.3,18.2 H 38.7 Q 35.05,16.35 31.35,13.8 27.65,11.25 24,8 q -3.45,3.1 -7.2,5.7 -3.75,2.6 -7.5,4.5 z m 19.85,7.25 q 1.6,0 2.6,-1.275 1,-1.275 1,-2.975 H 25.5 q 0,1.7 1.025,2.975 1.025,1.275 2.625,1.275 z m -10.25,0 q 1.6,0 2.6,-1.275 1,-1.275 1,-2.975 h -7.25 q 0,1.7 1.025,2.975 1.025,1.275 2.625,1.275 z m -10.25,0 q 1.6,0 2.6,-1.275 1,-1.275 1,-2.975 H 5 Q 5,22.9 6.025,24.175 7.05,25.45 8.65,25.45 Z M 8.2,41 h 6.65 Q 15.3,38.45 15.6,35.45 15.9,32.45 16.15,28 15.6,27.75 14.875,27.125 14.15,26.5 13.9,26 13.05,26.95 12.025,27.55 11,28.15 9.75,28.4 9.6,32 9.2,35.075 8.8,38.15 8.2,41 Z M 18,41 H 30.05 Q 29.65,38.35 29.425,35.35 29.2,32.35 29,28.3 q -1.65,-0.05 -3.05,-0.8 -1.4,-0.75 -2.1,-2 -0.7,1.25 -1.95,2 -1.25,0.75 -2.8,0.8 -0.2,3.2 -0.425,6.35 Q 18.45,37.8 18,41 Z m 15.15,0 H 39.9 Q 39.2,37.95 38.8,34.825 38.4,31.7 38.3,28.4 37.1,28.15 36.175,27.6 35.25,27.05 34.45,26 q -0.5,0.65 -1.2,1.2 -0.7,0.55 -1.3,0.8 0.15,2.85 0.425,6.025 Q 32.65,37.2 33.15,41 Z M 39.4,25.45 q 1.6,0 2.6,-1.275 1,-1.275 1,-2.975 h -7.25 q 0,1.7 1.025,2.975 1.025,1.275 2.625,1.275 z" />
</svg>
